X:125
T:Stoney Steps
O:No 125 Wm Clarke MS  Feltwell, Norfolk
N:See also 169 + 260
I:abc2nwc
M:4/4
L:1/8
K:C
G|cGec gec'g|afed cBAG|AFEF D2de|fdec cBAG|
cGec gec'g|afed cBAG|AFEF D2de|fdcB c2:|
|:GABc defd|egec cBAG|ABcd e2c'2|bag^f g2zc|
agab c'g ec|afed cBAG|AFEF D2de|fdcB c3:|

